src/cmd/lc_connectorcurvearrowstart.svg

<svg viewBox="0 0 24 24" xmlns="http://www.w3.org/2000/svg"><path d="m7 3-3 3 3 3v-2h4 6c1.104569 0 2 .8954305 2 2 0 1.104569-.895431 2-2 2h-10c-1.6568542 0-3 1.343146-3 3s1.3431458 3 3 3h6 4v-1h-4-5.5v-.064453c-.1632809.042485-.3312819.064144-.5.064453-1.1045695 0-2-.895431-2-2s.8954305-2 2-2c.1688012.000946.3368036.023256.5.066406v-.066406h9.5c1.656854 0 3-1.343146 3-3 0-1.6568542-1.343146-3-3-3h-6-4v-1z" fill="#232629"/></svg>

<?xml version="1.0" encoding="UTF-8" standalone="no"?>
<svg
   xmlns:dc="http://purl.org/dc/elements/1.1/"
   xmlns:cc="http://creativecommons.org/ns#"
   xmlns:rdf="http://www.w3.org/1999/02/22-rdf-syntax-ns#"
   xmlns:svg="http://www.w3.org/2000/svg"
   xmlns="http://www.w3.org/2000/svg"
   xmlns:sodipodi="http://sodipodi.sourceforge.net/DTD/sodipodi-0.dtd"
   xmlns:inkscape="http://www.inkscape.org/namespaces/inkscape"
   viewBox="0 0 24 24"
   version="1.1"
   id="svg4"
   sodipodi:docname="lc_connectorcurvearrowstart.svg"
   inkscape:export-filename="/home/jupiter007/Libreoffice yaru theme fullcolor/build/cmd/lc_connectorcurvearrowstart.png"
   inkscape:export-xdpi="96"
   inkscape:export-ydpi="96"
   inkscape:version="0.92.5 (2060ec1f9f, 2020-04-08)">
  <metadata
     id="metadata10">
    <rdf:RDF>
      <cc:Work
         rdf:about="">
        <dc:format>image/svg+xml</dc:format>
        <dc:type
           rdf:resource="http://purl.org/dc/dcmitype/StillImage" />
      </cc:Work>
    </rdf:RDF>
  </metadata>
  <defs
     id="defs8" />
  <sodipodi:namedview
     pagecolor="#ffffff"
     bordercolor="#666666"
     borderopacity="1"
     objecttolerance="10"
     gridtolerance="10"
     guidetolerance="10"
     inkscape:pageopacity="0"
     inkscape:pageshadow="2"
     inkscape:window-width="1920"
     inkscape:window-height="1011"
     id="namedview6"
     showgrid="false"
     inkscape:zoom="55.625733"
     inkscape:cx="7.1388432"
     inkscape:cy="8.0933634"
     inkscape:window-x="0"
     inkscape:window-y="32"
     inkscape:window-maximized="1"
     inkscape:current-layer="svg4" />
  <path
     sodipodi:nodetypes="cccccsssssscccccsccsscccc"
     style="fill:#000000;stroke:#000000;opacity:0.6;stroke-width:2;stroke-miterlimit:4;stroke-dasharray:none;stroke-linejoin:round"
     inkscape:connector-curvature="0"
     id="path819"
     d="M 7,3 4,6 7,9 V 7 h 4 6 c 1.104569,0 2,0.8954305 2,2 0,1.104569 -0.895431,2 -2,2 H 7 c -1.6568542,0 -3,1.343146 -3,3 0,1.656854 1.3431458,3 3,3 h 6 4 V 16 H 13 7 C 5.8954305,16 5,15.104569 5,14 5,12.895431 5.8954305,12 7,12 h 10 c 1.656854,0 3,-1.343146 3,-3 C 20,7.3431458 18.656854,6 17,6 H 11 7 V 5 Z" />
  <path
     d="M 7,3 4,6 7,9 V 7 h 4 6 c 1.104569,0 2,0.8954305 2,2 0,1.104569 -0.895431,2 -2,2 H 7 c -1.6568542,0 -3,1.343146 -3,3 0,1.656854 1.3431458,3 3,3 h 6 4 V 16 H 13 7 C 5.8954305,16 5,15.104569 5,14 5,12.895431 5.8954305,12 7,12 h 10 c 1.656854,0 3,-1.343146 3,-3 C 20,7.3431458 18.656854,6 17,6 H 11 7 V 5 Z"
     id="path2"
     inkscape:connector-curvature="0"
     style="fill:#ffffff"
     sodipodi:nodetypes="cccccsssssscccccsccsscccc" />
</svg>
